X: 38022
T: Spencer's
R: hornpipe
M: 4/4
K: Dmajor
|:de|f2 eg fdcA|FAdA BAGE|FA A/A/A f2 za|gfed dcBA|
fdeg fdcA|FAdc BAGE|FG A/A/A f2 ef|gece d2:|
|:fg|a2 fg afdf|fg/f/ed dcBA|bg g/g/g af f/f/f|gfed dcBA|
d'bc'a bgaf|gfed dcAG||AGFG A3 g|fgec d2:|

